packages/icons/src/components/Icon/assets/small-outline/rocket.svg

<svg width="16" height="16" viewBox="0 0 16 16" fill="none" xmlns="http://www.w3.org/2000/svg">
<path fill-rule="evenodd" clip-rule="evenodd" d="M6.1946 4.99688C8.10791 2.56417 11.0797 1.00014 14.4166 1C14.5714 0.999993 14.7197 1.06145 14.8291 1.17085C14.9385 1.28024 15 1.42862 15 1.58333C15 4.92047 13.436 7.89247 11.0032 9.80595C11.0349 10.0223 11.0513 10.2433 11.0513 10.4679C11.0513 12.9709 9.02221 15 6.51923 15C6.19706 15 5.93589 14.7388 5.93589 14.4167V11.7416C5.31541 11.2477 4.75241 10.6846 4.25849 10.0641H1.58333C1.26117 10.0641 1 9.80293 1 9.48076C1 6.97778 3.02907 4.94871 5.53205 4.94871C5.75684 4.94871 5.97809 4.96513 6.1946 4.99688ZM5.42564 6.11703C3.81369 6.1671 2.48733 7.35072 2.21704 8.89743H4.27723C4.52637 7.90676 4.91679 6.97239 5.42564 6.11703ZM5.32836 9.52956C5.67548 9.94264 6.05792 10.3251 6.47099 10.6722C7.77507 10.3973 8.97859 9.84857 10.0188 9.08849C12.1804 7.50895 13.6327 5.02024 13.8141 2.18592C10.9799 2.36746 8.49145 3.81977 6.91205 5.98133C6.15193 7.02163 5.60323 8.22531 5.32836 9.52956ZM7.10256 11.7234V13.7829C8.64905 13.5127 9.83256 12.1867 9.88293 10.575C9.02758 11.0839 8.09322 11.4743 7.10256 11.7234ZM9.97435 5.62179C9.75131 5.62179 9.57051 5.8026 9.57051 6.02564C9.57051 6.24867 9.75131 6.42948 9.97435 6.42948C10.1974 6.42948 10.3782 6.24867 10.3782 6.02564C10.3782 5.8026 10.1974 5.62179 9.97435 5.62179ZM8.40384 6.02564C8.40384 5.15827 9.10698 4.45513 9.97435 4.45513C10.8417 4.45513 11.5449 5.15827 11.5449 6.02564C11.5449 6.89301 10.8417 7.59615 9.97435 7.59615C9.10698 7.59615 8.40384 6.89301 8.40384 6.02564ZM3.73694 10.7054C3.92957 10.9636 3.8764 11.3291 3.61817 11.5217C3.05849 11.9392 2.69003 12.595 2.66198 13.338C3.40497 13.31 4.06074 12.9415 4.47826 12.3818C4.6709 12.1236 5.03639 12.0704 5.29462 12.263C5.55285 12.4557 5.60603 12.8212 5.41339 13.0794C4.7681 13.9444 3.73486 14.5064 2.57051 14.5064C2.38454 14.5064 2.20152 14.492 2.02262 14.4642C1.77165 14.4252 1.57475 14.2283 1.53576 13.9774C1.50796 13.7985 1.49359 13.6155 1.49359 13.4295C1.49359 12.2651 2.05556 11.2319 2.92058 10.5866C3.1788 10.394 3.5443 10.4471 3.73694 10.7054Z" fill="black"/>
</svg>

<svg xmlns="http://www.w3.org/2000/svg" width="16" height="16" fill="none" viewBox="0 0 16 16">
    <path fill="#000" fill-rule="evenodd" d="M6.195 4.997A10.44 10.44 0 0 1 14.417 1a.583.583 0 0 1 .583.583c0 3.337-1.564 6.31-3.997 8.223q.048.324.048.662A4.53 4.53 0 0 1 6.52 15a.583.583 0 0 1-.583-.583v-2.675a10.5 10.5 0 0 1-1.678-1.678H1.583A.583.583 0 0 1 1 9.481a4.532 4.532 0 0 1 5.195-4.484m-.77 1.12a3.37 3.37 0 0 0-3.208 2.78h2.06c.25-.99.64-1.925 1.149-2.78M5.329 9.53q.522.62 1.143 1.142a9.2 9.2 0 0 0 3.548-1.584 9.28 9.28 0 0 0 3.795-6.902A9.28 9.28 0 0 0 6.912 5.98a9.2 9.2 0 0 0-1.584 3.55m1.775 2.193v2.06a3.366 3.366 0 0 0 2.78-3.208c-.855.509-1.79.9-2.78 1.148m2.871-6.101a.404.404 0 1 0 0 .807.404.404 0 0 0 0-.807m-1.57.404a1.57 1.57 0 1 1 3.14 0 1.57 1.57 0 0 1-3.14 0m-4.667 4.68a.583.583 0 0 1-.119.816 2.37 2.37 0 0 0-.956 1.816 2.37 2.37 0 0 0 1.816-.956.583.583 0 0 1 .935.697 3.54 3.54 0 0 1-3.39 1.385.58.58 0 0 1-.487-.487 3.54 3.54 0 0 1 1.385-3.39.583.583 0 0 1 .816.118" clip-rule="evenodd"/>
</svg>
